components/2.0/icon/icons/icon-download-22px.svg

<svg width="22" height="22" xmlns="http://www.w3.org/2000/svg"><path d="M15 7v2h3v9H4V9h3V7H2v13h18V7h-5zm0 5h-3V2h-2v10H7l4 4 4-4z" fill="#3D4752" fill-rule="evenodd"/></svg>

<?xml version="1.0" encoding="UTF-8" standalone="no"?>
<svg width="22px" height="22px" viewBox="0 0 22 22" version="1.1" xmlns="http://www.w3.org/2000/svg" xmlns:xlink="http://www.w3.org/1999/xlink" xmlns:sketch="http://www.bohemiancoding.com/sketch/ns">
    <!-- Generator: Sketch 3.4.4 (17249) - http://www.bohemiancoding.com/sketch -->
    <title>icon-download-22px</title>
    <desc>Created with Sketch.</desc>
    <defs></defs>
    <g id="22px" stroke="none" stroke-width="1" fill="none" fill-rule="evenodd" sketch:type="MSPage">
        <g id="icon-download-22px" sketch:type="MSArtboardGroup" fill="#3D4752">
            <path d="M15,7 L15,9 L18,9 L18,18 L4,18 L4,9 L7,9 L7,7 L2,7 L2,20 L20,20 L20,7 L15,7 Z M15,12 L12,12 L12,2 L10,2 L10,12 L7,12 L11,16 L15,12 Z" id="Shape" sketch:type="MSShapeGroup"></path>
        </g>
    </g>
</svg>
